packages/katcn/src/icons/svg/home.svg

<svg width="24" height="25" viewBox="0 0 24 25" fill="none" xmlns="http://www.w3.org/2000/svg">
<path fill-rule="evenodd" clip-rule="evenodd" d="M12.7429 4.54741C12.2732 4.23354 11.7268 4.23354 11.2571 4.54741L11.2401 4.55855L5.06101 8.50868C4.37822 8.94426 4 9.69594 4 10.4492V18.8881C4 19.6848 4.62926 20.312 5.41791 20.312H18.5821C19.3707 20.312 20 19.6848 20 18.8881V10.4492C20 9.6702 19.5879 8.97184 18.9195 8.49625L12.7599 4.55855L12.7429 4.54741ZM13.845 2.87848C12.7073 2.12319 11.2927 2.12319 10.155 2.87849L3.98456 6.82307C3.98442 6.82316 3.9847 6.82298 3.98456 6.82307C2.69746 7.64438 2 9.04793 2 10.4492V18.8881C2 20.7846 3.51999 22.312 5.41791 22.312H18.5821C20.48 22.312 22 20.7846 22 18.8881V10.4492C22 8.90031 21.1651 7.62863 20.052 6.84757C20.0403 6.83931 20.0283 6.83132 20.0162 6.82358L13.845 2.87848Z" fill="black"/>
</svg>

<svg xmlns="http://www.w3.org/2000/svg" fill="none" viewBox="0 0 24 25"><path fill="#000" fill-rule="evenodd" d="M12.743 4.547a1.29 1.29 0 0 0-1.486 0l-.017.012-6.179 3.95A2.31 2.31 0 0 0 4 10.449v8.44c0 .796.63 1.423 1.418 1.423h13.164A1.41 1.41 0 0 0 20 18.888V10.45c0-.779-.412-1.477-1.08-1.953L12.76 4.56zm1.102-1.669a3.29 3.29 0 0 0-3.69 0l-6.17 3.945A4.31 4.31 0 0 0 2 10.45v8.44a3.41 3.41 0 0 0 3.418 3.423h13.164A3.41 3.41 0 0 0 22 18.888V10.45c0-1.549-.835-2.82-1.948-3.601l-.036-.024z" clip-rule="evenodd"/></svg>
